svgs/charts/line-chart-down-04.svg

<svg width="24" height="24" viewBox="0 0 24 24" fill="none" xmlns="http://www.w3.org/2000/svg">
<path d="M3 9L9.65533 13.7538C9.85422 13.8959 10.1267 13.8733 10.2995 13.7005L13.7005 10.2995C13.8733 10.1267 14.1458 10.1041 14.3447 10.2462L21 15M6 21H18C19.6569 21 21 19.6569 21 18V6C21 4.34315 19.6569 3 18 3H6C4.34315 3 3 4.34315 3 6V18C3 19.6569 4.34315 21 6 21Z" stroke="#1C1D20" stroke-width="1.5" stroke-linecap="round" stroke-linejoin="round"/>
</svg>

<svg fill="none" xmlns="http://www.w3.org/2000/svg" viewBox="0 0 24 24"><path d="m3 9 6.655 4.754a.5.5 0 0 0 .645-.053l3.4-3.402a.5.5 0 0 1 .645-.053L21 15M6 21h12a3 3 0 0 0 3-3V6a3 3 0 0 0-3-3H6a3 3 0 0 0-3 3v12a3 3 0 0 0 3 3Z" stroke="#1C1D20" stroke-width="1.5" stroke-linecap="round" stroke-linejoin="round"/></svg>
